fs/timer_32_filled.svg

<svg viewBox="0 0 32 32" fill="none" xmlns="http://www.w3.org/2000/svg" height="1em" width="1em">
  <path d="M13 2C12.4477 2 12 2.44772 12 3C12 3.55228 12.4477 4 13 4H19C19.5523 4 20 3.55228 20 3C20 2.44772 19.5523 2 19 2H13ZM28 18C28 24.6274 22.6274 30 16 30C9.37258 30 4 24.6274 4 18C4 11.3726 9.37258 6 16 6C22.6274 6 28 11.3726 28 18ZM17 12C17 11.4477 16.5523 11 16 11C15.4477 11 15 11.4477 15 12V18C15 18.5523 15.4477 19 16 19C16.5523 19 17 18.5523 17 18V12ZM25.2929 6.29289C25.6834 5.90237 26.3166 5.90237 26.7071 6.29289L28.7069 8.29273C29.0975 8.68325 29.0975 9.31642 28.7069 9.70694C28.3164 10.0975 27.6833 10.0975 27.2927 9.70694L25.2929 7.70711C24.9024 7.31658 24.9024 6.68342 25.2929 6.29289Z" fill="#212121"/>
</svg>

<svg viewBox="0 0 32 32" fill="none" xmlns="http://www.w3.org/2000/svg" height="1em" width="1em">
  <path d="M13 2a1 1 0 1 0 0 2h6a1 1 0 1 0 0-2h-6Zm15 16c0 6.627-5.373 12-12 12S4 24.627 4 18 9.373 6 16 6s12 5.373 12 12Zm-11-6a1 1 0 1 0-2 0v6a1 1 0 1 0 2 0v-6Zm8.293-5.707a1 1 0 0 1 1.414 0l2 2a1 1 0 1 1-1.414 1.414l-2-2a1 1 0 0 1 0-1.414Z" fill="#212121"/>
</svg>
